X: 32173
T: Peter Turbit's
R: hornpipe
M: 4/4
K: Dmajor
g|:.fAdg .fAde|fgaf bagf|~e2cA ~e2cA|(3Bcd ef geag|
.fAdg .fAde|fgaf bagf|~e2ce ABcd|1 (3efe dc d2dg:|2 (3efe dc d2dA||
|:BcdA BcdA|.B.B.BA Bcd2|cdef gece|defd FAAA|
~BcdA ~BcdA|(3BcA dA Bcd2|cdef gecd|1 (3efe dc d2dA:|2 (3efe dc d2dg||

